X: 8844
T: Cuilin Ui Chaoimh
R: jig
M: 6/8
K: Dmajor
|:B3 BAF|Adc dF A|B/c/dB BAF|AFE EFA|
B3 BAF|Adc dAF|GBG FAF|1 EFE DFA:|2 EFE D3||
DFA d2 e|fdf ecA|gf e fdB|AFA ~B3|
Adf ~a3|baf a2 f|gf e fdB|AFA B2 g|
fdd d2 e|fdf ecA|gf e fdB|AFA ~B3|
Adf ~a3|baf a2 f|gf e fdB|AFA B3||

